X:976
T:Road to Monalea, The
R:reel
C:Colm O'Donnell
S:Jennikel Andersson
Z:id:hn-reel-976
M:C|
L:1/8
K:Ddor
dcAc d3e | dcAG EDD2 | cAGA c2ed | cAGE EDD2 |
dcAc d3e | dcAG EDD2 | EGAB c2ed | cAGE EDD2 :|
|: dcAc d2cd | eaag egga | gede c3d | eaag edde |
dcAc d2cd | eaag eg~g2 | cAGA c2ed | cAGE EDD2 :| 

